X: 37
M:4/4
L:1/8
K:G
"Con spirito"(3DEF|GFGB edBG|AGEE E3 d|efgf eede|ccBA B3 d|
efgf efde|ccBA e2 dB|GFGB edBG|AGEE E3||
M:6/8
L:1/8

